azure-patterns/svg-avere-vfxt-dark.svg

<svg xmlns="http://www.w3.org/2000/svg" viewBox="0 0 153 112">
                                
                            
  <path d="M60.4044 80.1323H35.0654V86.5059H60.4044V80.1323Z" fill="#1A1A1F"></path>
  <path d="M117.576 29.4627C115.479 29.4627 113.433 29.6826 111.434 30.0427C105.309 12.9903 89.1265 0.781738 70.0652 0.781738C45.7493 0.781738 26.0387 20.613 26.0387 45.0779C26.0387 46.4577 26.121 47.8217 26.2446 49.1697C11.6968 51.9804 0.699707 64.8359 0.699707 80.2917C0.699707 97.7489 14.7248 111.905 32.0567 111.994V112H60.4047V105.627H32.0662L32.0567 105.617C18.247 105.531 7.03445 94.2052 7.03445 80.2917C7.03445 68.1692 15.6149 57.7102 27.4387 55.4285L33.0766 54.3386L32.5508 48.5865C32.4305 47.2672 32.3734 46.12 32.3734 45.0779C32.3734 24.1663 49.2809 7.15528 70.0652 7.15528C85.8609 7.15528 100.092 17.2223 105.476 32.2065L107.291 37.2575L112.549 36.3111C114.342 35.9892 115.986 35.8331 117.576 35.8331C133.118 35.8331 145.765 48.5578 145.765 64.1953C145.765 80.0113 133.118 92.8763 117.576 92.8763H35.2241V99.2498H117.576C136.643 99.2498 152.1 83.3797 152.1 64.1953C152.1 45.011 136.643 29.4627 117.576 29.4627Z" fill="#1A1A1F"></path>
</svg>

<svg xmlns="http://www.w3.org/2000/svg" viewBox="0 0 153 112"><path d="M60.404 80.132H35.065v6.374h25.34v-6.374z" fill="#1A1A1F"/><path d="M117.576 29.463c-2.097 0-4.143.22-6.142.58C105.309 12.99 89.126.782 70.065.782 45.75.782 26.04 20.613 26.04 45.078c0 1.38.082 2.744.206 4.092C11.697 51.98.7 64.836.7 80.292c0 17.457 14.025 31.613 31.357 31.702V112h28.348v-6.373H32.066l-.01-.01c-13.809-.086-25.022-11.412-25.022-25.325 0-12.123 8.58-22.582 20.405-24.864l5.638-1.09-.526-5.752a38.635 38.635 0 0 1-.178-3.508c0-20.912 16.908-37.923 37.692-37.923 15.796 0 30.027 10.067 35.411 25.051l1.815 5.051 5.258-.946c1.793-.322 3.437-.478 5.027-.478 15.542 0 28.189 12.725 28.189 28.362 0 15.816-12.647 28.681-28.189 28.681H35.224v6.374h82.352c19.067 0 34.524-15.87 34.524-35.055 0-19.184-15.457-34.732-34.524-34.732z" fill="#1A1A1F"/></svg>
